icon-themes/sifr_svg/cmd/sc_spacepara1.svg

<svg viewBox="0 0 16 16" xmlns="http://www.w3.org/2000/svg"><path d="m3.1914062 2c-.6243472.7255583-1.1403007 1.2335687-1.9101562 2.25-.1909501.19768-.28125.44055-.28125.75v.5859375.4140625h1c.2568899 0 .52846-.12983.71875-.3125l.28125-.5097656v1.8222656 2 1.822266l-.28125-.509766c-.19029-.18267-.4618601-.3125-.71875-.3125h-1v.414062.585938c.0705191.301308.0902999.55232.28125.75.7698555 1.016431 1.2858089 1.524442 1.9101562 2.25h1.6445313l1.8828125-2.25c.19095-.19768.2812499-.44055.28125-.75v-.585938-.414062h-1c-.2568901 0-.5284601.12983-.71875.3125l-.28125.509766v-1.822266-2-1.8222656l.28125.5097656c.1902899.18267.4623109.3277154.71875.3125h1v-.4140625-.5859375c-.0000001-.30945-.0903-.55232-.28125-.75l-1.8828125-2.25zm4.8085938 2v2h7v-2zm0 3v2h7v-2zm0 3v2h7v-2z" fill="#555753"/></svg>

<svg xmlns="http://www.w3.org/2000/svg" viewBox="0 0 16 16">
  <path
     style="fill:#555753"
     d="M 3.1914062 2 C 2.567059 2.7255583 2.0511055 3.2335687 1.28125 4.25 C 1.0902999 4.44768 1 4.69055 1 5 L 1 5.5859375 L 1 6 L 2 6 C 2.2568899 6 2.52846 5.87017 2.71875 5.6875 L 3 5.1777344 L 3 7 L 3 9 L 3 10.822266 L 2.71875 10.3125 C 2.52846 10.12983 2.2568899 10 2 10 L 1 10 L 1 10.414062 L 1 11 C 1.0705191 11.301308 1.0902999 11.55232 1.28125 11.75 C 2.0511055 12.766431 2.5670589 13.274442 3.1914062 14 L 4.8359375 14 L 6.71875 11.75 C 6.9097 11.55232 6.9999999 11.30945 7 11 L 7 10.414062 L 7 10 L 6 10 C 5.7431099 10 5.4715399 10.12983 5.28125 10.3125 L 5 10.822266 L 5 9 L 5 7 L 5 5.1777344 L 5.28125 5.6875 C 5.4715399 5.87017 5.7435609 6.0152154 6 6 L 7 6 L 7 5.5859375 L 7 5 C 6.9999999 4.69055 6.9097 4.44768 6.71875 4.25 L 4.8359375 2 L 3.1914062 2 z M 8 4 L 8 6 L 15 6 L 15 4 L 8 4 z M 8 7 L 8 9 L 15 9 L 15 7 L 8 7 z M 8 10 L 8 12 L 15 12 L 15 10 L 8 10 z "
     />
</svg>
